X:1
T: The Royal Paisley Volunteers March
M: C|
B: James Campbell's Collection 1798
Z: source from Highland Music Trust, chords by Gary Whaley
L: 1/8
K:Bb
[|: "Bb"B2 B>B B2 T(c>B/c/)|d>BA>c B2 F2|d d<d d2 T(e>d/e/)|f>gfe Te2 d2|
"Eb"g3 e bgbg|"Bb"f3 d Bdfb|"Eb"{^f}g2 ec B2 "F"Tc>Bc| "Bb" B2 B>B B4 :|]
[|:"F"{=B}c3 d (fe)(dc)| {^c}d3 e (gf)(ed) |{=B}c3 d (fe)(dc) |"Bb" d2 B>B B4|
|"Eb" g3 a {c'}b2 ag|"Bb"fdef "Eb"gabe| "Eb"(e/d/c/d/) (f/e/d/c/) "F" B2 Tc>B/C/ |"Bb" B2 B>B B4 :|]
 